X: 11
M:2/4
L:1/16
K:G
uD|vG2(BG) dGBG|ABcd cBAG|Bdgd egdB|cB"4"AG FADF|\
|:veuf|{a}g2(dg) Bgdg|gabg agef|g2(dg) Bgdg|cB"4"AG FADF|\
{a}g2(dg) Bgdg|gabg agef|gfga gfed|egfa g2:|


